common/svg/theme-light-icon.svg

<svg height="20" viewBox="0 0 20 20" width="20" xmlns="http://www.w3.org/2000/svg"><path clip-rule="evenodd" d="m5.19022 14.1669-2.58269 2.5827.64283.6428 2.58267-2.5827c-.22921-.1987-.44406-.4136-.64281-.6428zm1.29024-1.2903c.19234.2351.40776.4505.6428.6429l2.42223-2.4222v3.4258c.14952.0148.30116.0224.45461.0224.1534 0 .305-.0076.4545-.0224v-3.4258l2.4222 2.4222c.2351-.1923.4505-.4077.6428-.6428l-2.4222-2.4222h3.4257c.0148-.1495.0224-.3011.0224-.4544 0-.1535-.0076-.30518-.0224-.45473h-3.4257l2.4221-2.42212c-.1924-.23504-.4078-.45046-.6429-.6428l-2.422 2.42207v-3.42546c-.1495-.01484-.3011-.02244-.4545-.02244-.15345 0-.30509.0076-.45461.02244v3.42551l-2.42206-2.42206c-.23505.19234-.45048.40777-.64283.64281l2.42204 2.42205h-3.42555c-.01486.14955-.02246.30123-.02246.45473 0 .1533.00759.3049.02243.4544h3.42558zm-2.82802-3.33123h-3.65242474v.90913h3.65240474c-.01059-.1501-.01597-.3017-.01597-.4544 0-.15292.00539-.30455.01599-.45473zm1.53793-3.71228-2.58282-2.58282.64282-.64282 2.58282 2.58282c-.22921.19875-.44407.41361-.64282.64282zm4.35512-2.18066c.15015-.0106.30174-.01599.45461-.01599.1528 0 .3044.00539.4545.01598v-3.65240474h-.90911zm4.62141 1.53778c.2292.19875.4441.41361.6428.64281l2.5828-2.58276-.6428-.64282zm2.1808 4.35516c.0106.15018.016.30181.016.45473 0 .1527-.0054.3043-.016.4544h3.6523v-.90913zm-1.5378 4.62153c-.1988.2293-.4136.4441-.6429.6429l2.5827 2.5826.6428-.6428zm-4.3553 2.1808c-.1501.0106-.3017.016-.4545.016-.15287 0-.30446-.0054-.45461-.016v3.6523h.90911z" fill-rule="evenodd"/><path d="m15.4545 9.99996c0 3.01244-2.4421 5.45454-5.45454 5.45454-3.01246 0-5.45453-2.4421-5.45453-5.45454 0-3.01246 2.44207-5.45453 5.45453-5.45453 3.01244 0 5.45454 2.44207 5.45454 5.45453z"/></svg>

<svg width="20" height="20" viewBox="0 0 20 20" fill="none" xmlns="http://www.w3.org/2000/svg">
<g clip-path="url(#clip0)">
<path fill-rule="evenodd" clip-rule="evenodd" d="M5.19022 14.1669L2.60753 16.7496L3.25036 17.3924L5.83303 14.8097C5.60382 14.611 5.38897 14.3961 5.19022 14.1669ZM6.48046 12.8766C6.6728 13.1117 6.88822 13.3271 7.12326 13.5195L9.54549 11.0973V14.5231C9.69501 14.5379 9.84665 14.5455 10.0001 14.5455C10.1535 14.5455 10.3051 14.5379 10.4546 14.5231V11.0973L12.8768 13.5195C13.1119 13.3272 13.3273 13.1118 13.5196 12.8767L11.0974 10.4545H14.5231C14.5379 10.305 14.5455 10.1534 14.5455 10.0001C14.5455 9.8466 14.5379 9.69492 14.5231 9.54537H11.0974L13.5195 7.12325C13.3271 6.88821 13.1117 6.67279 12.8766 6.48045L10.4546 8.90252V5.47706C10.3051 5.46222 10.1535 5.45462 10.0001 5.45462C9.84665 5.45462 9.69501 5.46222 9.54549 5.47706V8.90257L7.12343 6.48051C6.88838 6.67285 6.67295 6.88828 6.4806 7.12332L8.90264 9.54537H5.47709C5.46223 9.69492 5.45463 9.8466 5.45463 10.0001C5.45463 10.1534 5.46222 10.305 5.47706 10.4545H8.90264L6.48046 12.8766ZM3.65244 9.54537H1.52588e-05V10.4545H3.65242C3.64183 10.3044 3.63645 10.1528 3.63645 10.0001C3.63645 9.84718 3.64184 9.69555 3.65244 9.54537ZM5.19037 5.83309L2.60755 3.25027L3.25037 2.60745L5.83319 5.19027C5.60398 5.38902 5.38912 5.60388 5.19037 5.83309ZM9.54549 3.65243C9.69564 3.64183 9.84723 3.63644 10.0001 3.63644C10.1529 3.63644 10.3045 3.64183 10.4546 3.65242V1.52588e-05H9.54549V3.65243ZM14.1669 5.19021C14.3961 5.38896 14.611 5.60382 14.8097 5.83302L17.3925 3.25026L16.7497 2.60744L14.1669 5.19021ZM16.3477 9.54537C16.3583 9.69555 16.3637 9.84718 16.3637 10.0001C16.3637 10.1528 16.3583 10.3044 16.3477 10.4545H20V9.54537H16.3477ZM14.8099 14.1669C14.6111 14.3962 14.3963 14.611 14.167 14.8098L16.7497 17.3924L17.3925 16.7496L14.8099 14.1669ZM10.4546 16.3477C10.3045 16.3583 10.1529 16.3637 10.0001 16.3637C9.84723 16.3637 9.69564 16.3583 9.54549 16.3477V20H10.4546V16.3477Z" fill="black"/>
<path d="M15.4545 9.99996C15.4545 13.0124 13.0124 15.4545 9.99996 15.4545C6.9875 15.4545 4.54543 13.0124 4.54543 9.99996C4.54543 6.9875 6.9875 4.54543 9.99996 4.54543C13.0124 4.54543 15.4545 6.9875 15.4545 9.99996Z" fill="black"/>
</g>
<defs>
<clipPath id="clip0">
<rect width="20" height="20" fill="white"/>
</clipPath>
</defs>
</svg>
